X: 1517
T:Pigeon on the Gate
M:4/4
L:1/8
C:Trad.
S:Jerry Holland
R:Reel
K:Gm
c|:dG (3GGG {e}dcAc|d2 de dcAB|cF (3FFF cFAB|c2 cf dcBc|!
dG (3GGG {e}dcAc|d2 de dcAG|FAcf afga|fdcA GABc:||!
dg (3ggg fagf|dgga bgaf|dcde fgfd|cA f2 fgaf|!
dg (3ggg fagf|dgga bgaf|dcde fgfd|1cAFA GABc:|2cAFA G2 G||!
